X:23
T:Source d'esprance - K240
M:4/4
L:1/8
K:C
[P:Refrain]GG FED2D2|CC DDE4|GG FED2D2|CC DDE3C|AA BBc2c2|BB AAG3G|AA GFE2E2|FF ED|
C6.|[P:Couplet]EE|CC DEF2F2|z2FF DD EF|G6EG|c4B2A2|G6EG|A4G2F2|E6EE|CC DEF2F2|
FF DD EF|G6EF|c4B2A2|G6EG|A4G2F2|E6EE|AA AGF2F2|z2DD GG GF|E8||
